src/assets/icons/mainBlock/achievementStar.svg

<svg width="16" height="16" viewBox="0 0 16 16" fill="none" xmlns="http://www.w3.org/2000/svg">
<path d="M7.9987 1.33325L10.0587 5.50659L14.6654 6.17992L11.332 9.42659L12.1187 14.0133L7.9987 11.8466L3.8787 14.0133L4.66536 9.42659L1.33203 6.17992L5.9387 5.50659L7.9987 1.33325Z" fill="#F8BD38"/>
</svg>

<svg width="16" height="16" fill="none" xmlns="http://www.w3.org/2000/svg"><path d="m7.999 1.333 2.06 4.174 4.606.673-3.333 3.247.787 4.586-4.12-2.166-4.12 2.166.786-4.586L1.332 6.18l4.607-.673 2.06-4.174Z" fill="#F8BD38"/></svg>
